!!!OTL: GOTT GRUESS EUCH ALTER
!!!ARE: Europa, Mitteleuropa, Deutschland
!!!SCT: B0583
!!!YEM: Copyright 1995, estate of Helmut Schaffrath.
**kern
*ICvox
*Ivox
*M4/4
*k[f#c#]
*D:
{4a
=1
4.dd
8f#
8a
8g
8f#
8e
=2
8e
8d
4d
4r}
{4f#
=3
4.e
8f#
8a
8g
8f#
8e
=4
4f#
2r}
{4d
=5
4.b
8cc#
8dd
8cc#
8dd
8b
=6
8b
8a
4g
4r}
{8g
8f#
=7
4.e
8b
4a
4c#
=8
4d
2r}
==
!!!AGN: Soldaten - Lied, Ballade
!!!ONB: ESAC (Essen Associative Code) Database: BOEHME
!!!AMT: simple quadruple
!!!AIN: vox
!!!EED: Helmut Schaffrath
!!!EEV: 1.0
*-
